racetime/static/racetime/image/sword.svg

<?xml version="1.0" encoding="UTF-8" standalone="no"?>
<!-- Created with Inkscape (http://www.inkscape.org/) -->

<svg
   xmlns:dc="http://purl.org/dc/elements/1.1/"
   xmlns:cc="http://creativecommons.org/ns#"
   xmlns:rdf="http://www.w3.org/1999/02/22-rdf-syntax-ns#"
   xmlns:svg="http://www.w3.org/2000/svg"
   xmlns="http://www.w3.org/2000/svg"
   xmlns:sodipodi="http://sodipodi.sourceforge.net/DTD/sodipodi-0.dtd"
   xmlns:inkscape="http://www.inkscape.org/namespaces/inkscape"
   width="16"
   height="16"
   viewBox="0 0 16 16"
   version="1.1"
   id="svg5313"
   inkscape:export-filename="E:\Personal\repo\racetime.gg\app\racetime\static\racetime\image\sword.png"
   inkscape:export-xdpi="768.00006"
   inkscape:export-ydpi="768.00006"
   inkscape:version="0.92.4 (5da689c313, 2019-01-14)"
   sodipodi:docname="sword.svg">
  <defs
     id="defs5307" />
  <sodipodi:namedview
     id="base"
     pagecolor="#ffffff"
     bordercolor="#666666"
     borderopacity="1.0"
     inkscape:pageopacity="0.0"
     inkscape:pageshadow="2"
     inkscape:zoom="45.254834"
     inkscape:cx="6.2818877"
     inkscape:cy="7.080965"
     inkscape:document-units="px"
     inkscape:current-layer="layer1"
     showgrid="false"
     units="px"
     showguides="true"
     inkscape:guide-bbox="true"
     inkscape:window-width="1920"
     inkscape:window-height="1057"
     inkscape:window-x="1912"
     inkscape:window-y="-8"
     inkscape:window-maximized="1" />
  <metadata
     id="metadata5310">
    <rdf:RDF>
      <cc:Work
         rdf:about="">
        <dc:format>image/svg+xml</dc:format>
        <dc:type
           rdf:resource="http://purl.org/dc/dcmitype/StillImage" />
        <dc:title />
      </cc:Work>
    </rdf:RDF>
  </metadata>
  <g
     inkscape:label="Layer 1"
     inkscape:groupmode="layer"
     id="layer1"
     transform="translate(0,-292.76665)">
    <path
       style="fill:#1da674;fill-opacity:1;stroke:none;stroke-width:3.63177395;stroke-miterlimit:4;stroke-dasharray:none;stroke-opacity:1"
       mask="none"
       d="M 15.837891 -3.0058594 L 4.0449219 8.7871094 L 1.3613281 6.1015625 L 1.3613281 9.5117188 L 3.0644531 11.224609 L 0 14.287109 L 1.7128906 16 L 4.7714844 12.939453 L 6.484375 14.662109 L 9.9199219 14.662109 L 7.46875 12.210938 L 19.261719 0.41796875 L 15.837891 -3.0058594 z M 12.505859 2.3789062 L 13.919922 3.7929688 L 6.8476562 10.863281 L 5.4335938 9.4492188 L 12.505859 2.3789062 z "
       transform="translate(0,292.76665)"
       id="rect5864" />
  </g>
</svg>

<svg xmlns="http://www.w3.org/2000/svg" width="16" height="16"><path d="M15.838-3.006L4.045 8.787 1.36 6.102v3.41l1.703 1.713L0 14.287 1.713 16l3.058-3.06 1.713 1.722H9.92l-2.451-2.451L19.262.418l-3.424-3.424zM12.506 2.38l1.414 1.414-7.072 7.07L5.434 9.45l7.072-7.07z" fill="#1da674"/></svg>
